X:112
T:le P'tit bal \`a l'huile
C:Marcel Messervier
S:Gaston Nolet - SPTDQ 2012
Z:robin.beech@mcgill.ca
M:4/4
L:1/8
K:D
DEFG AAFA | BAFA ddDD | CDEF GECE | DFBF AdAF |
DEFG AAFA | BAFA ddDD | CDEF GECE |1 DFEC D4 :|2 DFEC D2 zd || dedc |:
B2GB dGBd | G2d2 c2B2 | A2FA dFAd | A2F2 E2D2 | 
C2AA CAAC | AAGG F2E2 | D3F AGED | AAFA dedc | 
B2GB dGBd | G2d2 c2B2 | A2FA dFAd | AaAa e2d2| c2aa caac | a3g f2e2 | d2EF GABc |1
d2z f fedc :|2 d4 |]

